places/scalable/user-trash.svg

<svg height="48" viewBox="0 0 48 48" width="48" xmlns="http://www.w3.org/2000/svg"><g transform="matrix(.95652181 0 0 .95652181 1.335759 1.043478)"><path d="m21.735341 46.94994c-5.032333-.34499-9.129329-1.7193-10.899534-3.65619-.630303-.68965-.800898-1.05899-.9876844-2.13834-.5154932-2.97876-5.5805421-30.23003-5.7129898-30.73737-.9068618-3.47364 2.7934162-6.61981 9.8128572-8.34339 1.607547-.39473 4.050182-.78562 5.988507-.95834 1.740318-.15508 5.779614-.15508 7.51993 0 8.491716.75668 14.848428 3.68377 15.806288 7.27834.184956.6941.169192 1.22463-.06491 2.18442-.253228 1.03821-5.714811 30.64111-5.714811 30.97544 0 .1357-.138332.52357-.307404.86192-.858009 1.71703-3.734913 3.23865-7.620283 4.03044-2.162565.4407-5.550507.65865-7.81997.50307z" fill="#ececec" stroke-width=".784688"/><path d="m21.431538 15.2995c-6.124014-.30529-11.7830878-2.00135-14.2268636-4.26386-.6201623-.57416-1.1145379-1.39315-1.1128159-1.84351.00291-.76219.9401582-1.90114 2.2550004-2.74031 5.6271101-3.59138 17.2717141-4.54775 25.8078531-2.1196 2.948569.83874 5.17648 1.98156 6.407185 3.28661.83209.88235.988986 1.44223.627371 2.23873-.849652 1.87146-4.633132 3.77691-9.393662 4.73085-1.916174.38398-3.740414.60199-6.00055.7171-1.978325.10075-2.228962.10041-4.363518-.006z" fill="#ccc" stroke-width=".784688"/></g></svg>

<?xml version="1.0" encoding="UTF-8" standalone="no"?>
<!-- Created with Inkscape (http://www.inkscape.org/) -->

<svg
   xmlns:dc="http://purl.org/dc/elements/1.1/"
   xmlns:cc="http://creativecommons.org/ns#"
   xmlns:rdf="http://www.w3.org/1999/02/22-rdf-syntax-ns#"
   xmlns:svg="http://www.w3.org/2000/svg"
   xmlns="http://www.w3.org/2000/svg"
   xmlns:sodipodi="http://sodipodi.sourceforge.net/DTD/sodipodi-0.dtd"
   xmlns:inkscape="http://www.inkscape.org/namespaces/inkscape"
   id="svg2"
   version="1.1"
   inkscape:version="0.92.1 r15371"
   width="48"
   height="48"
   viewBox="0 0 48 48"
   sodipodi:docname="user-trash.svg">
  <metadata
     id="metadata8">
    <rdf:RDF>
      <cc:Work
         rdf:about="">
        <dc:format>image/svg+xml</dc:format>
        <dc:type
           rdf:resource="http://purl.org/dc/dcmitype/StillImage" />
        <dc:title />
      </cc:Work>
    </rdf:RDF>
  </metadata>
  <defs
     id="defs6" />
  <sodipodi:namedview
     pagecolor="#ffffff"
     bordercolor="#666666"
     borderopacity="1"
     objecttolerance="10"
     gridtolerance="10"
     guidetolerance="10"
     inkscape:pageopacity="0"
     inkscape:pageshadow="2"
     inkscape:window-width="1600"
     inkscape:window-height="840"
     id="namedview4"
     showgrid="false"
     inkscape:zoom="5.888499"
     inkscape:cx="-18.673308"
     inkscape:cy="23.961625"
     inkscape:window-x="0"
     inkscape:window-y="32"
     inkscape:window-maximized="1"
     inkscape:current-layer="svg2" />
  <g
     id="g3250"
     transform="matrix(0.95652181,0,0,0.95652181,1.3357587,1.0434782)">
    <path
       style="fill:#ececec;stroke-width:0.78468841"
       d="M 21.735341,46.94994 C 16.703008,46.60495 12.606012,45.23064 10.835807,43.29375 10.205504,42.6041 10.034909,42.23476 9.8481226,41.15541 9.3326294,38.17665 4.2675805,10.92538 4.1351328,10.41804 3.228271,6.9444 6.928549,3.79823 13.94799,2.07465 c 1.607547,-0.39473 4.050182,-0.78562 5.988507,-0.95834 1.740318,-0.15508 5.779614,-0.15508 7.51993,0 8.491716,0.75668 14.848428,3.68377 15.806288,7.27834 0.184956,0.6941 0.169192,1.22463 -0.06491,2.18442 -0.253228,1.03821 -5.714811,30.64111 -5.714811,30.97544 0,0.1357 -0.138332,0.52357 -0.307404,0.86192 -0.858009,1.71703 -3.734913,3.23865 -7.620283,4.03044 -2.162565,0.4407 -5.550507,0.65865 -7.81997,0.50307 z"
       id="path3348"
       inkscape:connector-curvature="0" />
    <path
       style="fill:#cccccc;stroke-width:0.78468841"
       d="M 21.431538,15.2995 C 15.307524,14.99421 9.6484502,13.29815 7.2046744,11.03564 6.5845121,10.46148 6.0901365,9.64249 6.0918585,9.19213 6.0947685,8.42994 7.0320167,7.29099 8.3468589,6.45182 13.973969,2.86044 25.618573,1.90407 34.154712,4.33222 c 2.948569,0.83874 5.17648,1.98156 6.407185,3.28661 0.83209,0.88235 0.988986,1.44223 0.627371,2.23873 -0.849652,1.87146 -4.633132,3.77691 -9.393662,4.73085 -1.916174,0.38398 -3.740414,0.60199 -6.00055,0.7171 -1.978325,0.10075 -2.228962,0.10041 -4.363518,-0.006 z"
       id="path3340"
       inkscape:connector-curvature="0" />
  </g>
</svg>
